!!!!SEGMENT: pl-wtm--r-730-7-m--004_moniuszko-stanislaw--walc.krn
!!!cenid: 18xx:1687
!!!COM: Moniuszko, Stanisław
!!!COM-rismid: pe30008351
!!!CDT: 1819/05/05-1872/06/04
!!!CNT: Polish
!!!OTL: Walc
!!!PDT:
!!!AGN: Secular; Waltz
!!!SMS-siglum: PL-Wtm
!!!SMS-shelfmark: R 730/7/M
!!!SMS-shelfwork: 004 W
!!!SMS-variant:
!!!SMS-altvar:
!!!NIFC-rismid: 1001099778
!!!URL-scan: http://repozytorium.nifc.pl/skany/pl-wtm-nut--r730m-1-43
!!!ONB-nifc: Skan 0015. No. 759
**kern	**kern	**dynam
*part2	*part1	*part1
*staff3	*staff1	*
*Ipiano	*Ipiano	*
*I"Piano	*I"Piano	*
*clefF4	*clefG2	*
*k[f#c#]	*k[f#c#]	*
*D:	*D:	*
*M3/4	*M3/4	*
=1	=1	=1
!	!	!LO:DY:rj
4E/ 4EE/	4gg\ 4ee\ 4b\ 4g\	f
4r	4r	.
4r	4r	.
=2	=2	=2
4A\ 4AA\	4cc#/ 4g/ 4e/	.
4r	4r	.
4r	4r	.
=3	=3	=3
4D\	(8ff#/L 8dd/	.
.	8a/J)	.
4A\ 4F#\	8d/	.
.	8r	.
4A\ 4F#\	4r	.
=4	=4	=4
4AA/	(8ff#\L 8dd\	f
.	8aa\J)	.
4A\ 4F#\	8ddd\	.
.	8r	.
4A\ 4F#\	4r	.
=5	=5	=5
4D\	(<8ff#/L 8dd/	.
.	8a\J)	.
4A\ 4F#\	8d/	.
.	8r	.
4A\ 4F#\	4r	.
=6	=6	=6
4AA/	(8ff#\L 8dd\	.
.	8aa\J)	.
4A\ 4F#\	8ddd\	.
.	8r	.
4A\ 4F#\	4r	.
=7	=7	=7
8F#/L 8FF#/	8ddd\L 8ff#\ 8ee\	f
8F#/J 8FF#/	8ddd\J 8ff#\ 8ee\	.
4F#/ 4FF#/	4ddd\ 4ff#\ 4ee\	.
4A#X/ 4AA#X/	4ccc#\ 4ff#\ 4ee\	.
=8	=8	=8
*	*2\right	*
4B\ 4BB\	(2ccc#\ 2ff#\ 2dd^<\	.
4d\ 4B\	.	.
4d\ 4B\	4bb\ 4ff#\ 4dd\)	.
=9	=9	=9
8A\L 8AA\	8bb\L 8gg\ 8cc#\	.
8A\J 8AA\	8bb\J 8gg\ 8cc#\	.
4A\ 4AA\	4bb\ 4gg\ 4cc#\	.
4A\ 4AA\	4aa\ 4ff#\ 4cc#\	.
=10	=10	=10
4D\	(2ee#X\ 2cc#^<\	.
4B\	.	.
4A\	4ff#\ 4dd\)	.
=11	=11	=11
4D\	(8ff#\L 8dd\	.
.	8a\J)	.
4A\ 4F#\	8d/	.
.	8r	.
4A\ 4F#\	4r	.
=12	=12	=12
4AA/	(8ff#\L 8dd\	p
.	8aa\J)	.
4A\ 4F#\	8ddd\	.
.	8r	.
4A\ 4F#\	4r	.
=13	=13	=13
4D\	(<8ff#/L 8dd/	.
.	8a\J)	.
4A\ 4F#\	8d/	.
.	8r	.
4A\ 4F#\	4r	.
=14	=14	=14
4AA/	(8ff#\L 8dd\	.
.	8aa\J)	.
4A\ 4F#\	8ddd\	.
.	8r	.
4A\ 4F#\	4r	.
!!LO:LB:g=original
=15	=15	=15
8F#/L 8FF#/	8ddd\L 8ff#\ 8ee\	f
8F#/J 8FF#/	8ddd\J 8ff#\ 8ee\	.
4F#/ 4FF#/	4ddd\ 4ff#\ 4ee\	.
4A#X/ 4AA#X/	4ccc#\ 4ff#\ 4ee\	.
=16	=16	=16
4B\ 4BB\	(2ccc#\ 2ff#\ 2dd\	.
4d\ 4B\	.	.
4d\ 4B\	4bb\ 4ff#\ 4dd\)	.
=17	=17	=17
4AA/	8aa\L	.
.	8bb\	.
4c#\ 4G\ 4E\	8ccc#\	.
.	8bb\	.
4c#\ 4G\ 4E\	8gg\	.
.	8ee\J	.
=18	=18	=18
4d\ 4F#\ 4D\	8dd\L	.
.	8cc#\	.
4r	8dd\	.
.	8cc#\	.
4r	8dd\	.
.	8dd#X\J	.
=19	=19	=19
4EE/	4r	p
!	!LO:TX:t=P:problem:tr = tr.	!
4d\ 4B\ 4G#X\ 4E\	(4ff#\ 4ddT\	.
4d\ 4B\ 4G#\ 4E\	4ee\ 4b\)	.
=20	=20	=20
*rep	*	*
4EE/	4r	.
!	!LO:TX:t=P:problem:tr = tr.	!
4d\ 4B\ 4G#X\ 4E\	(4ff#\ 4ddT\	.
4d\ 4B\ 4G#\ 4E\	4ee\ 4b\)	.
*Xrep	*	*
=21	=21	=21
4AA/	4r	.
4c#\ 4A\ 4E\	4ccc#\ 4aa^\	.
4c#\ 4A\ 4E\	[>4ccc#\ [>4aa^\	.
=22	=22	=22
4C#/	8ccc#\]L 8aa\]	>
.	8bb\ 8gg#X\	.
4c#\ 4A\ 4E\	8aa\ 8ff#\	.
.	8gg#\ 8ee\	.
4c#\ 4A\ 4E\	8ff#\ 8dd\	.
.	8ee\J 8cc#\	]]
=23	=23	=23
4E\	4dd\ 4b\	.
4d\ 4B\	4gg#X\ 4ee^\	.
4d\ 4B\	[[4gg#\ [[4ee^\	.
=24	=24	=24
*	*8va	*
4EE/	8gg#X/]]L 8ee/]]	<
.	8aa/ 8ff#/	.
4d\ 4B\	8bb/ 8gg#/	.
.	8ccc#/ 8aa/	.
4d\ 4B\	8ddd/ 8bb/	.
.	8ddd#X/J 8bb#X/	[[
=25	=25	=25
4AA/	(2fff#\ 2dddn\	.
4c#\ 4A\	.	.
4c#\ 4A\	4eee\ 4ccc#\)	.
*	*X8va	*
=26	=26	=26
*rep	*	*
!	!LO:TX:a:t=loco.	!
4AA/	4r	.
4c#\ 4A\	8ee\L	pp
.	8ee\J	.
4c#\ 4A\	4ee\	<
*Xrep	*	*
=27	=27	=27
4EE/	4r	[
!	!LO:TX:t=P:problem:tr = tr.	!
4d\ 4B\ 4G#X\ 4E\	(4ff#\ 4ddT\	p
4d\ 4B\ 4G#\ 4E\	4ee\ 4b\)	.
=28	=28	=28
*rep	*	*
4EE/	4r	.
!	!LO:TX:t=P:problem:tr = tr.	!
4d\ 4B\ 4G#X\ 4E\	(4ff#\ 4ddT\	.
4d\ 4B\ 4G#\ 4E\	4ee\ 4b\)	.
*Xrep	*	*
=29	=29	=29
4AA/	4r	.
4c#\ 4A\ 4E\	4ccc#\ 4aa\	.
4c#\ 4A\ 4E\	4ccc#\ 4aa\	.
=30	=30	=30
4D\	4.bb\	.
4d\ 4B\ 4F#\	.	.
.	8aa\L	.
4d\ 4B\ 4F#\	8gg#X\	.
.	8ff#\J	.
!!LO:LB:g=original
=31	=31	=31
4E\	4.ff#\	.
4c#\ 4A\	.	.
.	8ee\L	.
4c#\ 4A\	8cc#\	.
.	8a\J	.
=32	=32	=32
4EE/	8gg#X\L	.
.	8ff#\	.
4d\ 4B\ 4G#X\ 4E\	8ee\	.
.	8dd\	.
4d\ 4B\ 4G#\ 4E\	8cc#\	.
.	8b\J	.
=33	=33	=33
4c#\ 4A\	(8a/L	.
.	16b/L	.
.	16a/JJ)	.
!	!LO:SIC:s:v=g#	!
4E\	8g\L	.
.	8a\	.
4C#/	8cc#\	.
.	8ee\J	.
=34	=34	=34
8AA/	8aa\	.
8r	8r	.
4r	(4aa\	.
4r	4aa#X\)	.
=35	=35	=35
4AA/	4.bb\	p
4c#\ 4G\ 4E\	.	.
.	8aan\L	.
4c#\ 4G\ 4E\	8ggn\	.
.	8ee\J	.
=36	=36	=36
*rep	*	*
4AA/	(2b\	.
4c#\ 4G\ 4E\	.	.
4c#\ 4G\ 4E\	4cc#\)	.
*Xrep	*	*
=37	=37	=37
4DD/	4.dd\	.
4d\ 4F#\	.	.
.	8ff#\L	.
4d\ 4F#\	8aa\	.
.	8ddd\J	.
=38	=38	=38
4AA/	2ccc#\	.
4d\ 4A\ 4F#\	.	.
4d\ 4A\ 4F#\	(8bb\L	.
.	8ccc#\J)	.
=39	=39	=39
4E\	4.bb\	.
4c#\ 4A\ 4G\	.	.
.	8aa\L	.
4c#\ 4A\ 4G\	8gg\	.
.	8ee\J	.
=40	=40	=40
4AA/	2b\	.
4c#\ 4G\ 4E\	.	.
4c#\ 4G\ 4E\	4cc#\	.
=41	=41	=41
4D\	4.dd\	.
4d\ 4F#\	.	.
.	8ff#\L	.
4d\ 4F#\	8aa\	.
.	8ddd\J	.
=42	=42	=42
4AA/	2ccc#\	.
4d\ 4A\ 4F#\	.	.
4d\ 4A\ 4F#\	4bb\	.
=43	=43	=43
4D\	4aa\	.
4d\ 4A\ 4F#\ 4D\	8bb\L	.
.	8ccc#\	.
4d\ 4A\ 4F#\ 4D\	8ddd\	.
.	8eee\J	.
=44	=44	=44
4D/ 4DD/	4ddd\ 4dd\	<
4E/ 4EE/	4ccc#\ 4aa\ 4ee\	.
4F#/ 4FF#/	4ddd\ 4ff#\	.
=45	=45	=45
4G/ 4GG/	4ccc#\ 4aa\	.
4D/ 4GG/	4bb\ 4gg\	[
4D/ 4GG/	4ccc#\ 4aa\	.
=46	=46	=46
4D/ 4GG/	4.eee\ 4.ccc#\	.
4r	.	.
.	8ddd\ 8bb\	.
4D/ 4GG/	4bb\ 4gg\	.
!!LO:LB:g=original
=47	=47	=47
4AA/	4aa\ 4ff#\	.
4r	8f#\L	.
.	8a\	.
4r	8dd\	.
.	8ff#\J	.
=48	=48	=48
4AA/	4.bb\	>
4c#\ 4G\ 4E\	.	.
.	8aa\L	.
4c#\ 4G\ 4E\	8ee\	.
.	8ee#X\J	]]
=49	=49	=49
4d\ 4A\ 4F#\ 4D\	4fff#\ 4ff#\	ff
4d\ 4A\ 4F#\ 4D\	4eee#X\ 4ee#X\	.
4d\ 4A\ 4F#\ 4D\	4fff#\ 4ff#\	.
=50	=50	=50
*rep	*	*
4d\ 4A\ 4F#\ 4D\	4ggg\ 4gg\	.
4d\ 4A\ 4F#\ 4D\	4fff#\ 4ff#\	.
4d\ 4A\ 4F#\ 4D\	4eee\ 4ee\	.
*Xrep	*	*
=51	=51	=51
4d\ 4A#X\ 4F#\ 4D\	4ddd\ 4dd\	.
4d\ 4A#\ 4F#\ 4D\	4ccc#\ 4cc#\	.
4d\ 4A#\ 4F#\ 4D\	4ddd\ 4dd\	.
=52	=52	=52
*rep	*	*
4d\ 4A#X\ 4F#\ 4D\	4eee\ 4ee\	.
4d\ 4A#\ 4F#\ 4D\	4ddd\ 4dd\	.
4d\ 4A#\ 4F#\ 4D\	4ccc#\ 4cc#\	.
*Xrep	*	*
=53	=53	=53
4d\ 4B\ 4F#\ 4D\	4bb\ 4b\	.
4d\ 4B\ 4F#\ 4D\	4ccc#\ 4cc#\	.
4d\ 4B\ 4F#\ 4D\	4ddd\ 4dd\	.
=54	=54	=54
4c#\ 4G\ 4D\	2fff#\ 2ff#\	.
4c#\ 4G\ 4D\	.	.
4c#\ 4G\ 4D\	[>4eee\ [>4ee\	.
=55	=55	=55
4d\ 4F#\ 4D\	4eee\] 4ee\]	.
4d\ 4F#\ 4D\	4aa\ 4a\	.
4d\ 4F#\ 4D\	4bb\ 4b\	.
=56	=56	=56
*rep	*	*
4d\ 4F#\ 4D\	4ccc#\ 4cc#\	.
4d\ 4F#\ 4D\	4ddd\ 4dd\	.
4d\ 4F#\ 4D\	4eee\ 4ee\	.
*Xrep	*	*
=57	=57	=57
*tremolo	*	*
*2\right	*	*
16A\ 16F#\ 16D\LL	4fff#\ 4ff#\	.
16d\	.	.
16A\ 16F#\ 16D\	.	.
16d\	.	.
16A\ 16F#\ 16D\	4eee#X\ 4ee#X\	.
16d\	.	.
16A\ 16F#\ 16D\	.	.
16d\	.	.
16A\ 16F#\ 16D\	4fff#\ 4ff#X\	.
16d\	.	.
16A\ 16F#\ 16D\	.	.
16d\JJ	.	.
=58	=58	=58
*rep	*	*
16A\ 16F#\ 16D\LL	4ggg\ 4gg\	.
16d\	.	.
16A\ 16F#\ 16D\	.	.
16d\	.	.
16A\ 16F#\ 16D\	4fff#\ 4ff#\	.
16d\	.	.
16A\ 16F#\ 16D\	.	.
16d\	.	.
16A\ 16F#\ 16D\	4eee\ 4ee\	.
16d\	.	.
16A\ 16F#\ 16D\	.	.
16d\JJ	.	.
*Xrep	*	*
=59	=59	=59
16A#X\ 16F#\ 16D\LL	4ddd\ 4dd\	.
16d\	.	.
16A#X\ 16F#\ 16D\	.	.
16d\	.	.
16A#X\ 16F#\ 16D\	4ccc#\ 4cc#\	.
16d\	.	.
16A#X\ 16F#\ 16D\	.	.
16d\	.	.
16A#X\ 16F#\ 16D\	4ddd\ 4dd\	.
16d\	.	.
16A#X\ 16F#\ 16D\	.	.
16d\JJ	.	.
=60	=60	=60
*rep	*	*
16A#X\ 16F#\ 16D\LL	4eee\ 4ee\	.
16d\	.	.
16A#X\ 16F#\ 16D\	.	.
16d\	.	.
16A#X\ 16F#\ 16D\	4ddd\ 4dd\	.
16d\	.	.
16A#X\ 16F#\ 16D\	.	.
16d\	.	.
16A#X\ 16F#\ 16D\	4ccc#\ 4cc#\	.
16d\	.	.
16A#X\ 16F#\ 16D\	.	.
16d\JJ	.	.
*Xrep	*	*
=61	=61	=61
16B\ 16F#\ 16D\LL	4bb\ 4b\	.
16d\	.	.
16B\ 16F#\ 16D\	.	.
16d\	.	.
16B\ 16F#\ 16D\	4ccc#\ 4cc#\	.
16d\	.	.
16B\ 16F#\ 16D\	.	.
16d\	.	.
16B\ 16F#\ 16D\	4ddd\ 4dd\	.
16d\	.	.
16B\ 16F#\ 16D\	.	.
16d\JJ	.	.
=62	=62	=62
16A\ 16G\ 16D\LL	4eee\ 4ee\	.
16c#\	.	.
16A\ 16G\ 16D\	.	.
16c#\	.	.
16A\ 16G\ 16D\	4fff#\ 4ff#\	.
16c#\	.	.
16A\ 16G\ 16D\	.	.
16c#\	.	.
16A\ 16G\ 16D\	4eee\ 4ee\	.
16c#\	.	.
16A\ 16G\ 16D\	.	.
16c#\JJ	.	.
*Xtremolo	*	*
!!LO:LB:g=original
=63	=63	=63
4d\ 4F#\ 4D\	4ddd\ 4dd\	.
8A\L	8aa\L	.
8A\J	8aa\J	.
4G#X\	4gg#X\	.
=64	=64	=64
4Gn\	4ggn\	.
4F#\	4ff#\	.
4E\	4ee\	.
=65	=65	=65
4D\	4dd\	.
8AA/L	8a/L	.
8AA/J	8a/J	.
4BB/	4g#X/	.
=66	=66	=66
4C#/	4f#/	.
4G\ 4AA\	4B/	.
4G\ 4AA\	4c#/	.
=67	=67	=67
4F#\ 4D\	4d/	.
4r	4r	.
8A\L 8D\	8dd\L 8f#\	.
8A\J 8D\	8dd\J 8f#\	.
=68	=68	=68
4A\ 4D\	4dd/ 4f#/	.
4A\ 4D\	4dd/ 4f#/	.
4A\ 4D\	4dd/ 4f#/	.
=69	=69	=69
4A\ 4D\	4dd/ 4f#/	.
4r	4r	.
8A#X\L 8D\	8f#/L 8d/	.
8A#\J 8D\	8f#/J 8d/	.
=70	=70	=70
4B\ 4D\	4g/ 4d/	.
4A\ 4D\	4f#/ 4d/	.
4G\ 4D\	4b/ 4d/	.
=71	=71	=71
4F#\ 4D\	4a/ 4d/	.
4r	4r	.
4r	4r	.
=72	=72	=72
*	*	*^
!	!	!LO:DY:rj:b=2	!LO:DY:rj
4D/ 4DD/	4ddd\ 4aa\ 4ff#\ 4dd\	ff	ff
4r	4r	.	.
4r	4r	.	.
=73	=73	=73	=73
!	!	!LO:DY:rj:b=2	!LO:DY:rj
2AA/ 2DD/	2dd/ 2f#/	p	p
4r	4r	.	.
*	*	*v	*v
==;	==;	==
*-	*-	*-
!!!system-decoration: [(s1,s2)]
!!!RDF**kern: > = above
!!!RDF**kern: < = below
!!!RDF**dynam: p = p.
!!!RDF**dynam: f = f.
!!!RDF**dynam: ff = ff.
!!!EED: Leszek Kubiak
!!!EST: 2021-04-22
!!!ENC: Marcin Jachim
!!!END: 2021-04-02
